X:43
T:Muurari  (the Bricklayer)
M:3/4
L:1/4
Q:1/4=160
S:arr. Eira Mattsson (Washington DC Finlandia Foundation) ~1976
R:waltz
K:Em
B, | "Em" G F E | G F E | "B7" ^D2 F | B,3 |
B, ^D F | A G F | "Em" B2 G | E3 | !
E G B | "Am" e/2e/2 d c/2c/2 | "B7" B B>A | B2 A |
G F E | B,2 ^D | "Em" (E3 | E) z B, | !
E E E/2E/2 | E G B | e3 | e2 c/2B/2 |
"Am" A A c | e d c | "Em" (B3 | B) z | !
|: c/2B/2 | "Am" A A A/2A/2 | A G F | "Em" E2 G | B2 G/2G/2 |
"Am" F A c | "B7" B G F | "Em" (E3 | E2) :||

